X: 8
T: Shanhu he dangzhu ni zhe huilai
L: 1/8
M: 2/4
K: D
e> e e a [I:setbarnb 1]| 
e d B A | 
A> E A e | 
E4 | 
e> e e a | 
e d B A | 
A> E A B | 
A4 |]

@@@ Tune index: 8882
